src/img/lock.svg

<svg width="53" height="69" viewBox="0 0 53 69" fill="none" xmlns="http://www.w3.org/2000/svg">
<path d="M46.778 26.3352V20.0514C46.778 8.99493 37.5202 0 26.1406 0C14.7611 0 5.50329 8.99493 5.50329 20.0514V26.3352C2.36684 26.9561 0 29.6567 0 32.8843V40.473C0 41.2114 0.615895 41.8098 1.37582 41.8098C2.13575 41.8098 2.75164 41.2114 2.75164 40.473V32.8843C2.75164 30.6729 4.60309 28.874 6.87911 28.874H45.4021C47.6782 28.874 49.5296 30.6729 49.5296 32.8843V61.7583C49.5296 63.5008 48.3795 64.9869 46.778 65.5388V57.4807C46.778 56.7423 46.1621 56.1439 45.4021 56.1439C44.6422 56.1439 44.0263 56.7423 44.0263 57.4807V65.7686H6.87911C4.60309 65.7686 2.75164 63.9697 2.75164 61.7583V51.1979C2.75164 50.4596 2.13575 49.8611 1.37582 49.8611C0.615895 49.8611 0 50.4596 0 51.1979V61.7583C0 65.4438 3.08593 68.4421 6.87911 68.4421H45.4021C49.1953 68.4421 52.2813 65.4438 52.2813 61.7583V32.8843C52.2813 29.6567 49.9144 26.9561 46.778 26.3352ZM15.6844 26.2005V20.0514C15.6844 14.4495 20.3751 9.89202 26.1406 9.89202C31.9062 9.89202 36.5969 14.4495 36.5969 20.0514V26.2005H15.6844ZM39.3485 26.2005V20.0514C39.3485 12.9754 33.4233 7.2185 26.1406 7.2185C18.8579 7.2185 12.9327 12.9754 12.9327 20.0514V26.2005H8.25493V20.0514C8.25493 10.469 16.2782 2.67352 26.1406 2.67352C36.003 2.67352 44.0263 10.469 44.0263 20.0514V26.2005H39.3485Z" fill="url(#paint0_linear)"/>
<path d="M1.37582 47.1193C1.73751 47.1193 2.09276 46.9768 2.34857 46.7277C2.60439 46.4791 2.75164 46.1345 2.75164 45.7826C2.75164 45.4311 2.60439 45.086 2.34857 44.838C2.09276 44.5889 1.73751 44.4458 1.37582 44.4458C1.01413 44.4458 0.65889 44.5889 0.403073 44.838C0.147256 45.086 0 45.4311 0 45.7826C0 46.1345 0.147256 46.4791 0.403073 46.7277C0.65889 46.9768 1.01413 47.1193 1.37582 47.1193Z" fill="url(#paint1_linear)"/>
<path d="M26.1407 61.2236C28.4167 61.2236 30.2682 59.4247 30.2682 57.2133V50.1149C32.3351 48.7854 33.5879 46.5505 33.5879 44.1016C33.5879 40.1216 30.2547 36.8831 26.1584 36.8831C22.0616 36.8831 18.729 40.1216 18.729 44.1016C18.729 46.5328 19.9678 48.7593 22.0132 50.0919V57.2133C22.0132 59.4247 23.8647 61.2236 26.1407 61.2236ZM21.4806 44.1016C21.4806 41.5951 23.5788 39.5566 26.1584 39.5566C28.7376 39.5566 30.8362 41.5951 30.8362 44.1016C30.8362 45.8226 29.8527 47.3761 28.27 48.1567C27.8078 48.3844 27.5165 48.845 27.5165 49.3489V57.2133C27.5165 57.9506 26.8996 58.5501 26.1407 58.5501C25.3819 58.5501 24.7649 57.9506 24.7649 57.2133V49.3311C24.7649 48.8309 24.4774 48.3724 24.0195 48.1432C22.4534 47.3589 21.4806 45.8101 21.4806 44.1016Z" fill="url(#paint2_linear)"/>
<path d="M45.4022 53.3368C45.7655 53.3368 46.1191 53.1938 46.3749 52.9452C46.6308 52.6967 46.778 52.3531 46.778 52.0001C46.778 51.6471 46.6308 51.3035 46.3749 51.055C46.1191 50.8064 45.7655 50.6633 45.4022 50.6633C45.0405 50.6633 44.6853 50.8064 44.4294 51.055C44.1736 51.3035 44.0264 51.6487 44.0264 52.0001C44.0264 52.3515 44.1736 52.6967 44.4294 52.9452C44.6853 53.1938 45.0405 53.3368 45.4022 53.3368Z" fill="url(#paint3_linear)"/>
<defs>
<linearGradient id="paint0_linear" x1="52.2812" y1="-54.7539" x2="-0.181047" y2="-54.7034" gradientUnits="userSpaceOnUse">
<stop stop-color="#F59E27"/>
<stop offset="1" stop-color="#FC5829"/>
</linearGradient>
<linearGradient id="paint1_linear" x1="2.75164" y1="42.307" x2="-0.00952672" y2="42.3106" gradientUnits="userSpaceOnUse">
<stop stop-color="#F59E27"/>
<stop offset="1" stop-color="#FC5829"/>
</linearGradient>
<linearGradient id="paint2_linear" x1="33.5879" y1="17.4106" x2="18.6775" y2="17.422" gradientUnits="userSpaceOnUse">
<stop stop-color="#F59E27"/>
<stop offset="1" stop-color="#FC5829"/>
</linearGradient>
<linearGradient id="paint3_linear" x1="46.778" y1="48.5245" x2="44.0168" y2="48.5281" gradientUnits="userSpaceOnUse">
<stop stop-color="#F59E27"/>
<stop offset="1" stop-color="#FC5829"/>
</linearGradient>
</defs>
</svg>

<svg width="53" height="69" fill="none" xmlns="http://www.w3.org/2000/svg"><path d="M46.778 26.335v-6.284C46.778 8.995 37.52 0 26.141 0 14.76 0 5.503 8.995 5.503 20.051v6.284C2.367 26.956 0 29.657 0 32.885v7.588c0 .738.616 1.337 1.376 1.337.76 0 1.376-.599 1.376-1.337v-7.589c0-2.211 1.851-4.01 4.127-4.01h38.523c2.276 0 4.128 1.799 4.128 4.01v28.874c0 1.743-1.15 3.229-2.752 3.78v-8.057c0-.739-.616-1.337-1.376-1.337-.76 0-1.376.598-1.376 1.337v8.288H6.88c-2.276 0-4.127-1.8-4.127-4.01V51.197c0-.738-.616-1.337-1.376-1.337-.76 0-1.376.599-1.376 1.337v10.56c0 3.686 3.086 6.684 6.88 6.684h38.522c3.793 0 6.88-2.998 6.88-6.684V32.884c0-3.227-2.368-5.928-5.504-6.549zm-31.094-.134v-6.15c0-5.601 4.691-10.159 10.457-10.159 5.765 0 10.456 4.558 10.456 10.16V26.2H15.684zm23.665 0v-6.15c0-7.076-5.926-12.832-13.208-12.832-7.283 0-13.208 5.756-13.208 12.832v6.15H8.255v-6.15c0-9.582 8.023-17.377 17.886-17.377 9.862 0 17.885 7.795 17.885 17.377v6.15h-4.678z" fill="url(#paint0_linear)"/><path d="M1.376 47.12c.362 0 .717-.143.973-.392.255-.249.403-.593.403-.945s-.148-.697-.403-.945a1.406 1.406 0 0 0-1.946 0 1.326 1.326 0 0 0-.403.945c0 .352.147.696.403.945s.611.391.973.391z" fill="url(#paint1_linear)"/><path d="M26.14 61.224c2.277 0 4.128-1.8 4.128-4.01v-7.1c2.067-1.329 3.32-3.563 3.32-6.012 0-3.98-3.333-7.219-7.43-7.219-4.096 0-7.429 3.239-7.429 7.219 0 2.43 1.239 4.657 3.284 5.99v7.121c0 2.212 1.852 4.01 4.128 4.01zm-4.66-17.122c0-2.507 2.099-4.545 4.678-4.545 2.58 0 4.678 2.038 4.678 4.545 0 1.72-.983 3.274-2.566 4.055a1.333 1.333 0 0 0-.753 1.192v7.864c0 .738-.617 1.337-1.376 1.337-.76 0-1.376-.6-1.376-1.337v-7.882c0-.5-.288-.959-.745-1.188-1.567-.784-2.54-2.333-2.54-4.041z" fill="url(#paint2_linear)"/><path d="M45.402 53.337c.364 0 .717-.143.973-.392.256-.248.403-.592.403-.945s-.147-.697-.403-.945a1.404 1.404 0 0 0-1.946 0 1.328 1.328 0 0 0-.403.945c0 .352.148.697.403.945.256.249.611.392.973.392z" fill="url(#paint3_linear)"/><defs><linearGradient id="paint0_linear" x1="52.281" y1="-54.754" x2="-.181" y2="-54.703" gradientUnits="userSpaceOnUse"><stop stop-color="#F59E27"/><stop offset="1" stop-color="#FC5829"/></linearGradient><linearGradient id="paint1_linear" x1="2.752" y1="42.307" x2="-.01" y2="42.311" gradientUnits="userSpaceOnUse"><stop stop-color="#F59E27"/><stop offset="1" stop-color="#FC5829"/></linearGradient><linearGradient id="paint2_linear" x1="33.588" y1="17.411" x2="18.677" y2="17.422" gradientUnits="userSpaceOnUse"><stop stop-color="#F59E27"/><stop offset="1" stop-color="#FC5829"/></linearGradient><linearGradient id="paint3_linear" x1="46.778" y1="48.525" x2="44.017" y2="48.528" gradientUnits="userSpaceOnUse"><stop stop-color="#F59E27"/><stop offset="1" stop-color="#FC5829"/></linearGradient></defs></svg>
